images/Humanity/actions/16/document-save.svg

<?xml version="1.0" encoding="UTF-8" standalone="no"?>
<!-- Created with Inkscape (http://www.inkscape.org/) -->
<svg id="svg2" xmlns="http://www.w3.org/2000/svg" height="16" width="16" version="1.0" xmlns:xlink="http://www.w3.org/1999/xlink">
 <defs id="defs4">
  <linearGradient id="linearGradient3374" y2="20.71" gradientUnits="userSpaceOnUse" x2=".81572" gradientTransform="matrix(0 -.31945 -.31335 0 15.561 13.086)" y1="20.71" x1="28.315">
   <stop id="stop3652" style="stop-color:#d0e08f" offset="0"/>
   <stop id="stop4172" style="stop-color:#9fba48" offset="1"/>
  </linearGradient>
  <linearGradient id="linearGradient8226" y2="104.28" gradientUnits="userSpaceOnUse" x2="53.991" gradientTransform="matrix(.12421 0 0 .18640 .23313 -3.9907)" y1="87.896" x1="53.991">
   <stop id="stop2223-6-4" style="stop-color:#7a7a7a" offset="0"/>
   <stop id="stop2219-1-2" style="stop-color:#474747" offset="1"/>
  </linearGradient>
  <linearGradient id="linearGradient8223" y2="35.281" gradientUnits="userSpaceOnUse" x2="24.688" gradientTransform="matrix(.55458 0 0 .35955 -1.6911 1.3146)" y1="35.281" x1="7.0625">
   <stop id="stop6311-0" offset="0"/>
   <stop id="stop6313-7" style="stop-color:#bbb;stop-opacity:0" offset="1"/>
  </linearGradient>
  <linearGradient id="linearGradient8220" y2="33.759" gradientUnits="userSpaceOnUse" x2="12.222" gradientTransform="matrix(.55458 0 0 .35955 -2.1323 1.7913)" y1="37.206" x1="12.277">
   <stop id="stop4238-4-4" style="stop-color:#eee" offset="0"/>
   <stop id="stop4240-3-9" style="stop-color:#eee;stop-opacity:0" offset="1"/>
  </linearGradient>
  <linearGradient id="linearGradient8217" y2="6.8647" gradientUnits="userSpaceOnUse" x2="2.2246" gradientTransform="matrix(.64516 0 0 .97976 .25806 -6.7257)" y1="11.321" x1="4.6104">
   <stop id="stop3486-2-4" style="stop-color:#969696" offset="0"/>
   <stop id="stop3488-0-2" style="stop-color:#b4b4b4" offset="1"/>
  </linearGradient>
  <radialGradient id="radialGradient8215" gradientUnits="userSpaceOnUse" cy="2.3118" cx="4.1993" gradientTransform="matrix(1.1767 1.0377 -.76928 .87233 1.0364 -3.2772)" r="8">
   <stop id="stop7064-4-6" style="stop-color:#e6e6e6" offset="0"/>
   <stop id="stop7060-2-1" style="stop-color:#c8c8c8" offset="1"/>
  </radialGradient>
  <radialGradient id="radialGradient8211" xlink:href="#linearGradient4035-5" gradientUnits="userSpaceOnUse" cy="206.43" cx="141.75" gradientTransform="matrix(.12709 -.0021289 .00094059 .12249 -10.298 -14.5)" r="78.728"/>
  <radialGradient id="radialGradient8208" xlink:href="#linearGradient4035-5" gradientUnits="userSpaceOnUse" cy="191.85" cx="142.62" gradientTransform="matrix(.061651 0 0 -.065372 -1.0371 17.524)" r="78.728"/>
  <radialGradient id="radialGradient8201" gradientUnits="userSpaceOnUse" cy="42" cx="24" gradientTransform="matrix(.33333 0 0 .14286 6.5e-7 8)" r="21">
   <stop id="stop6312-6-2" style="stop-color:#fff" offset="0"/>
   <stop id="stop6314-6-0" style="stop-color:#fff;stop-opacity:0" offset="1"/>
  </radialGradient>
  <radialGradient id="radialGradient8198" gradientUnits="userSpaceOnUse" cy="143.83" cx="127.32" gradientTransform="matrix(.041797 -.013884 .0033869 .037975 -.54191 -.79595)" r="78.728">
   <stop id="stop8107" style="stop-color:#f5f5f5" offset="0"/>
   <stop id="stop8109" style="stop-color:#e7e7e7" offset=".25028"/>
   <stop id="stop8111" style="stop-color:#8c8c8c" offset=".69349"/>
   <stop id="stop8113" style="stop-color:#ddd" offset=".83543"/>
   <stop id="stop8115" style="stop-color:#a8a8a8" offset="1"/>
  </radialGradient>
  <linearGradient id="linearGradient4035-5">
   <stop id="stop4037-8" style="stop-color:#f5f5f5" offset="0"/>
   <stop id="stop4039-7" style="stop-color:#e7e7e7" offset=".47026"/>
   <stop id="stop4041-0" style="stop-color:#8c8c8c" offset=".69349"/>
   <stop id="stop4043-4" style="stop-color:#ddd" offset=".83543"/>
   <stop id="stop4045-8" style="stop-color:#a8a8a8" offset="1"/>
  </linearGradient>
 </defs>
 <g id="g3119">
  <path id="rect2992-5" style="stroke-linejoin:round;stroke:#353537;fill:url(#linearGradient8226)" d="m15.497 12.5c-0.30416 2.535-0.22639 2.9839-0.77717 2.9839-0.21573 0.03617-8.6983 0-13.47 0-0.59814 0-0.447 0.04932-0.7499-2.9839 4.8142 0.13977 10.032-0.37056 14.997 0z"/>
  <path id="rect9146-5" style="fill-rule:evenodd;fill:url(#linearGradient8223)" d="m2 13h10v2h-9.7744l-0.2256-2z"/>
  <path id="path9148-2" style="opacity:.81143;fill:url(#linearGradient8220);fill-rule:evenodd" d="m2.2256 15l-0.15038-1.4423c1.0179 1.1431 4.7514 1.4423 7.3252 1.4423h-7.1749z"/>
  <path id="rect2990-9" style="stroke-linejoin:round;stroke:url(#linearGradient8217);stroke-linecap:round;fill:url(#radialGradient8215)" d="m1.4897 1.4658-0.97495 11.023c-0.00975 0-0.01475 0.003-0.01475 0.011h15c0-0.0082-0.005-0.01111-0.01475-0.01111l-1.005-11.241s-0.18775-0.7434-0.90964-0.7434c-0.68815 0-10.535-0.004447-11.26-0.004447-0.75868 0-0.82051 0.96576-0.82051 0.96576z"/>
  <path id="path2215-0" style="opacity:.7;stroke-linejoin:round;stroke:#fff;stroke-linecap:round;fill:none" d="m1.4763 12.5h13.047"/>
  <path id="path8117" style="fill:url(#radialGradient8211)" d="m9.875 1.0312c-0.3325 0-0.5854 0.1622-0.5938 0.4063-1.735 2.8172-5.5652 1.8935-7.0937 5.25-0.0802 0.8627 0.1259 1.9826 0.9063 2.6875 1.1422 1.032 3.0442 1.666 5.0624 1.625 4.1658-0.085 7.8348-2.8002 4.6558-6.3438-0.017-0.2448-0.25-3.2187-0.25-3.2187-0.017-0.2408-0.294-0.4063-0.624-0.4063h-2.0625zm-0.03125 0.4375h2.0625c0.1199 0 0.214 0.027064 0.21875 0.09375l-0.437 3.0938c3.473 2.8052 0.258 5.1235-3.438 5.25-3.3581 0.1148-5.2801-1.0583-5.0938-3.0624 1.1782-3.3771 5.7075-1.762 6.4688-5.2813-0.0195-0.0627 0.1015-0.0937 0.2188-0.0937z"/>
  <path id="path9400" style="fill:url(#radialGradient8208)" d="m7.9999 8.9999c-0.6661 0.0041-1.382-0.2351-1.7816-0.7954-0.3304-0.4668-0.277-1.1624 0.1311-1.5665 0.4834-0.5182 1.2373-0.6875 1.9225-0.6251 0.6071 0.0562 1.2385 0.3314 1.5635 0.8701 0.2516 0.434 0.2116 1.0212-0.1189 1.4039-0.4067 0.5079-1.0866 0.7129-1.7166 0.713zm0.033529-2.0595c-0.4657 0.0106-0.9649-0.0032-1.3803 0.2407-0.2744 0.1909-0.298 0.6023-0.1132 0.8636 0.2517 0.392 0.7264 0.5638 1.1687 0.6235 0.5705 0.0718 1.1976-0.0568 1.6262-0.4584 0.2414-0.24 0.3518-0.6735 0.1113-0.9512-0.2382-0.2503-0.6084-0.2735-0.932-0.3044-0.16-0.0106-0.3204-0.0122-0.4806-0.0138z"/>
  <g id="g9436" transform="matrix(-.046858 0 0 .077502 4.3055 -2.9911)">
   <path id="path9438" style="fill:#535353" d="m37.925 187.15c0.31446 3.4586 5.0238 6.279 10.514 6.279 5.4879 0 9.6432-2.8205 9.2763-6.279-0.36437-3.4402-5.0712-6.2181-10.507-6.2181-5.438 0.002-9.5933 2.7778-9.2838 6.2181z"/>
  </g>
  <g id="g9496" transform="matrix(-.046858 0 0 .077502 16.206 -2.9911)">
   <path id="path9498" style="fill:#535353" d="m37.925 187.15c0.31446 3.4586 5.0238 6.279 10.514 6.279 5.4879 0 9.6432-2.8205 9.2763-6.279-0.36437-3.4402-5.0712-6.2181-10.507-6.2181-5.438 0.002-9.5933 2.7778-9.2838 6.2181z"/>
  </g>
  <rect id="rect6300-3-2" style="opacity:.2;fill:url(#radialGradient8201)" height="2" width="14" y="13" x="1"/>
  <path id="path8125" style="fill:url(#radialGradient8198)" d="m3.549 1.2794c0.0331 0.1845-0.0457 0.3887-0.0724 0.5784-0.1124 0.5802-0.2285 1.1596-0.3378 1.7404-0.1023 0.3783 0.2646 0.2244 0.31 0.2628 0.4797-0.1831 0.955-0.3835 1.4326-0.5748 0.4982-0.2038 0.9995-0.4013 1.4959-0.6091 0.313-0.1862 0.4048-0.3533 0.4863-0.6342 0.0449-0.2439 0.0503-0.5166-0.0716-0.7395-0.0781-0.154-0.2485-0.2192-0.4122-0.196h-2.6026l-0.2282 0.172zm0.58899 0.44397c0.59213 0 1.1843-1e-7 1.7764-1e-7 0.1871 0.070513 0.054625 0.21948-0.083295 0.23252-0.6014 0.2439-1.2028 0.4878-1.8041 0.7317-0.1446 0.0544-0.155-0.1673-0.1113-0.2613 0.037079-0.20752 0.074157-0.41504 0.11124-0.62256 0.041217-0.021125 0.065659-0.065363 0.11102-0.080349z"/>
 </g>
 <path id="path3288" style="stroke-linejoin:round;stroke:#699536;stroke-linecap:round;stroke-width:.99829;fill:url(#linearGradient3374)" d="m12.5 5.5-4.4403 5-4.5597-5h2v-5h5v5h2z"/>
</svg>

<?xml version="1.0" encoding="UTF-8" standalone="no"?>
<!-- Created with Inkscape (http://www.inkscape.org/) -->

<svg
   xmlns:dc="http://purl.org/dc/elements/1.1/"
   xmlns:cc="http://creativecommons.org/ns#"
   xmlns:rdf="http://www.w3.org/1999/02/22-rdf-syntax-ns#"
   xmlns:svg="http://www.w3.org/2000/svg"
   xmlns="http://www.w3.org/2000/svg"
   xmlns:xlink="http://www.w3.org/1999/xlink"
   xmlns:sodipodi="http://sodipodi.sourceforge.net/DTD/sodipodi-0.dtd"
   xmlns:inkscape="http://www.inkscape.org/namespaces/inkscape"
   id="svg2"
   height="128"
   width="128"
   version="1.0"
   sodipodi:docname="document-save.svg"
   inkscape:version="0.92.5 (2060ec1f9f, 2020-04-08)">
  <metadata
     id="metadata56">
    <rdf:RDF>
      <cc:Work
         rdf:about="">
        <dc:format>image/svg+xml</dc:format>
        <dc:type
           rdf:resource="http://purl.org/dc/dcmitype/StillImage" />
        <dc:title></dc:title>
      </cc:Work>
    </rdf:RDF>
  </metadata>
  <sodipodi:namedview
     pagecolor="#ffffff"
     bordercolor="#666666"
     borderopacity="1"
     objecttolerance="10"
     gridtolerance="10"
     guidetolerance="10"
     inkscape:pageopacity="0"
     inkscape:pageshadow="2"
     inkscape:window-width="4240"
     inkscape:window-height="2338"
     id="namedview54"
     showgrid="false"
     inkscape:zoom="14.75"
     inkscape:cx="67.389831"
     inkscape:cy="96.610169"
     inkscape:window-x="144"
     inkscape:window-y="54"
     inkscape:window-maximized="1"
     inkscape:current-layer="svg2" />
  <defs
     id="defs4">
    <linearGradient
       id="linearGradient3374"
       y2="20.709999"
       gradientUnits="userSpaceOnUse"
       x2="0.81572002"
       gradientTransform="matrix(0,-0.31945,-0.31335,0,15.561,125.086)"
       y1="20.709999"
       x1="28.315001">
      <stop
         id="stop3652"
         style="stop-color:#d0e08f"
         offset="0" />
      <stop
         id="stop4172"
         style="stop-color:#9fba48"
         offset="1" />
    </linearGradient>
    <linearGradient
       id="linearGradient8226"
       y2="104.28"
       gradientUnits="userSpaceOnUse"
       x2="53.991001"
       gradientTransform="matrix(0.12421,0,0,0.1864,0.23313,-3.9907)"
       y1="87.896004"
       x1="53.991001">
      <stop
         id="stop2223-6-4"
         style="stop-color:#7a7a7a"
         offset="0" />
      <stop
         id="stop2219-1-2"
         style="stop-color:#474747"
         offset="1" />
    </linearGradient>
    <linearGradient
       id="linearGradient8223"
       y2="35.280998"
       gradientUnits="userSpaceOnUse"
       x2="24.688"
       gradientTransform="matrix(0.55458,0,0,0.35955,-1.6911,1.3146)"
       y1="35.280998"
       x1="7.0625">
      <stop
         id="stop6311-0"
         offset="0" />
      <stop
         id="stop6313-7"
         style="stop-color:#bbb;stop-opacity:0"
         offset="1" />
    </linearGradient>
    <linearGradient
       id="linearGradient8220"
       y2="33.758999"
       gradientUnits="userSpaceOnUse"
       x2="12.222"
       gradientTransform="matrix(0.55458,0,0,0.35955,-2.1323,1.7913)"
       y1="37.206001"
       x1="12.277">
      <stop
         id="stop4238-4-4"
         style="stop-color:#eee"
         offset="0" />
      <stop
         id="stop4240-3-9"
         style="stop-color:#eee;stop-opacity:0"
         offset="1" />
    </linearGradient>
    <linearGradient
       id="linearGradient8217"
       y2="6.8646998"
       gradientUnits="userSpaceOnUse"
       x2="2.2246001"
       gradientTransform="matrix(0.64516,0,0,0.97976,0.25806,-6.7257)"
       y1="11.321"
       x1="4.6104002">
      <stop
         id="stop3486-2-4"
         style="stop-color:#969696"
         offset="0" />
      <stop
         id="stop3488-0-2"
         style="stop-color:#b4b4b4"
         offset="1" />
    </linearGradient>
    <radialGradient
       id="radialGradient8215"
       gradientUnits="userSpaceOnUse"
       cy="2.3118"
       cx="4.1992998"
       gradientTransform="matrix(1.1767,1.0377,-0.76928,0.87233,1.0364,-3.2772)"
       r="8">
      <stop
         id="stop7064-4-6"
         style="stop-color:#e6e6e6"
         offset="0" />
      <stop
         id="stop7060-2-1"
         style="stop-color:#c8c8c8"
         offset="1" />
    </radialGradient>
    <radialGradient
       id="radialGradient8211"
       xlink:href="#linearGradient4035-5"
       gradientUnits="userSpaceOnUse"
       cy="206.42999"
       cx="141.75"
       gradientTransform="matrix(0.12709,-0.0021289,9.4059e-4,0.12249,-10.298,-14.5)"
       r="78.727997" />
    <radialGradient
       id="radialGradient8208"
       xlink:href="#linearGradient4035-5"
       gradientUnits="userSpaceOnUse"
       cy="191.85001"
       cx="142.62"
       gradientTransform="matrix(0.061651,0,0,-0.065372,-1.0371,17.524)"
       r="78.727997" />
    <radialGradient
       id="radialGradient8201"
       gradientUnits="userSpaceOnUse"
       cy="42"
       cx="24"
       gradientTransform="matrix(0.33333,0,0,0.14286,6.5e-7,8)"
       r="21">
      <stop
         id="stop6312-6-2"
         style="stop-color:#fff"
         offset="0" />
      <stop
         id="stop6314-6-0"
         style="stop-color:#fff;stop-opacity:0"
         offset="1" />
    </radialGradient>
    <radialGradient
       id="radialGradient8198"
       gradientUnits="userSpaceOnUse"
       cy="143.83"
       cx="127.32"
       gradientTransform="matrix(0.041797,-0.013884,0.0033869,0.037975,-0.54191,-0.79595)"
       r="78.727997">
      <stop
         id="stop8107"
         style="stop-color:#f5f5f5"
         offset="0" />
      <stop
         id="stop8109"
         style="stop-color:#e7e7e7"
         offset=".25028" />
      <stop
         id="stop8111"
         style="stop-color:#8c8c8c"
         offset=".69349" />
      <stop
         id="stop8113"
         style="stop-color:#ddd"
         offset=".83543" />
      <stop
         id="stop8115"
         style="stop-color:#a8a8a8"
         offset="1" />
    </radialGradient>
    <linearGradient
       id="linearGradient4035-5">
      <stop
         id="stop4037-8"
         style="stop-color:#f5f5f5"
         offset="0" />
      <stop
         id="stop4039-7"
         style="stop-color:#e7e7e7"
         offset=".47026" />
      <stop
         id="stop4041-0"
         style="stop-color:#8c8c8c"
         offset=".69349" />
      <stop
         id="stop4043-4"
         style="stop-color:#ddd"
         offset=".83543" />
      <stop
         id="stop4045-8"
         style="stop-color:#a8a8a8"
         offset="1" />
    </linearGradient>
  </defs>
  <g
     id="g881"
     transform="matrix(7.9872301,0,0,7.9872301,4.5136891e-4,-894.36529)">
    <g
       transform="translate(0,112)"
       id="g3119">
      <path
         inkscape:connector-curvature="0"
         d="m 15.497,12.5 c -0.30416,2.535 -0.22639,2.9839 -0.77717,2.9839 -0.21573,0.03617 -8.6983,0 -13.47,0 -0.59814,0 -0.447,0.04932 -0.7499,-2.9839 4.8142,0.13977 10.032,-0.37056 14.997,0 z"
         style="fill:url(#linearGradient8226);stroke:#353537;stroke-linejoin:round"
         id="rect2992-5" />
      <path
         inkscape:connector-curvature="0"
         d="m 2,13 h 10 v 2 H 2.2256 Z"
         style="fill:url(#linearGradient8223);fill-rule:evenodd"
         id="rect9146-5" />
      <path
         inkscape:connector-curvature="0"
         d="M 2.2256,15 2.07522,13.5577 C 3.09312,14.7008 6.82662,15 9.40042,15 h -7.1749 z"
         style="opacity:0.81142997;fill:url(#linearGradient8220);fill-rule:evenodd"
         id="path9148-2" />
      <path
         inkscape:connector-curvature="0"
         d="M 1.4897,1.4658 0.51475,12.4888 C 0.505,12.4888 0.5,12.4918 0.5,12.4998 h 15 c 0,-0.0082 -0.005,-0.01111 -0.01475,-0.01111 l -1.005,-11.241 c 0,0 -0.18775,-0.7434 -0.90964,-0.7434 -0.68815,0 -10.535,-0.004447 -11.26,-0.004447 -0.75868,0 -0.82051,0.96576 -0.82051,0.96576 z"
         style="fill:url(#radialGradient8215);stroke:url(#linearGradient8217);stroke-linecap:round;stroke-linejoin:round"
         id="rect2990-9" />
      <path
         inkscape:connector-curvature="0"
         d="m 1.4763,12.5 h 13.047"
         style="opacity:0.7;fill:none;stroke:#ffffff;stroke-linecap:round;stroke-linejoin:round"
         id="path2215-0" />
      <path
         inkscape:connector-curvature="0"
         d="M 9.875,1.0312 C 9.5425,1.0312 9.2896,1.1934 9.2812,1.4375 7.5462,4.2547 3.716,3.331 2.1875,6.6875 2.1073,7.5502 2.3134,8.6701 3.0938,9.375 4.236,10.407 6.138,11.041 8.1562,11 12.322,10.915 15.991,8.1998 12.812,4.6562 12.795,4.4114 12.562,1.4375 12.562,1.4375 12.545,1.1967 12.268,1.0312 11.938,1.0312 H 9.8755 Z M 9.84375,1.4687 h 2.0625 c 0.1199,0 0.214,0.027064 0.21875,0.09375 l -0.437,3.0938 c 3.473,2.8052 0.258,5.1235 -3.438,5.25 -3.3581,0.1148 -5.2801,-1.0583 -5.0938,-3.0624 1.1782,-3.3771 5.7075,-1.762 6.4688,-5.2813 -0.0195,-0.0627 0.1015,-0.0937 0.2188,-0.0937 z"
         style="fill:url(#radialGradient8211)"
         id="path8117" />
      <path
         inkscape:connector-curvature="0"
         d="M 7.9999,8.9999 C 7.3338,9.004 6.6179,8.7648 6.2183,8.2045 5.8879,7.7377 5.9413,7.0421 6.3494,6.638 6.8328,6.1198 7.5867,5.9505 8.2719,6.0129 8.879,6.0691 9.5104,6.3443 9.8354,6.883 10.087,7.317 10.047,7.9042 9.7165,8.2869 9.3098,8.7948 8.6299,8.9998 7.9999,8.9999 Z M 8.033429,6.9404 c -0.4657,0.0106 -0.9649,-0.0032 -1.3803,0.2407 -0.2744,0.1909 -0.298,0.6023 -0.1132,0.8636 0.2517,0.392 0.7264,0.5638 1.1687,0.6235 0.5705,0.0718 1.1976,-0.0568 1.6262,-0.4584 0.2414,-0.24 0.3518,-0.6735 0.1113,-0.9512 -0.2382,-0.2503 -0.6084,-0.2735 -0.932,-0.3044 -0.16,-0.0106 -0.3204,-0.0122 -0.4806,-0.0138 z"
         style="fill:url(#radialGradient8208)"
         id="path9400" />
      <g
         transform="matrix(-0.046858,0,0,0.077502,4.3055,-2.9911)"
         id="g9436">
        <path
           inkscape:connector-curvature="0"
           d="m 37.925,187.15 c 0.31446,3.4586 5.0238,6.279 10.514,6.279 5.4879,0 9.6432,-2.8205 9.2763,-6.279 -0.36437,-3.4402 -5.0712,-6.2181 -10.507,-6.2181 -5.438,0.002 -9.5933,2.7778 -9.2838,6.2181 z"
           style="fill:#535353"
           id="path9438" />
      </g>
      <g
         transform="matrix(-0.046858,0,0,0.077502,16.206,-2.9911)"
         id="g9496">
        <path
           inkscape:connector-curvature="0"
           d="m 37.925,187.15 c 0.31446,3.4586 5.0238,6.279 10.514,6.279 5.4879,0 9.6432,-2.8205 9.2763,-6.279 -0.36437,-3.4402 -5.0712,-6.2181 -10.507,-6.2181 -5.438,0.002 -9.5933,2.7778 -9.2838,6.2181 z"
           style="fill:#535353"
           id="path9498" />
      </g>
      <rect
         x="1"
         y="13"
         width="14"
         height="2"
         style="opacity:0.2;fill:url(#radialGradient8201)"
         id="rect6300-3-2" />
      <path
         inkscape:connector-curvature="0"
         d="M 3.549,1.2794 C 3.5821,1.4639 3.5033,1.6681 3.4766,1.8578 3.3642,2.438 3.2481,3.0174 3.1388,3.5982 3.0365,3.9765 3.4034,3.8226 3.4488,3.861 3.9285,3.6779 4.4038,3.4775 4.8814,3.2862 5.3796,3.0824 5.8809,2.8849 6.3773,2.6771 6.6903,2.4909 6.7821,2.3238 6.8636,2.0429 6.9085,1.799 6.9139,1.5263 6.792,1.3034 6.7139,1.1494 6.5435,1.0842 6.3798,1.1074 H 3.7772 Z m 0.58899,0.44397 c 0.59213,0 1.1843,-1e-7 1.7764,-1e-7 0.1871,0.070513 0.054625,0.21948 -0.083295,0.23252 -0.6014,0.2439 -1.2028,0.4878 -1.8041,0.7317 -0.1446,0.0544 -0.155,-0.1673 -0.1113,-0.2613 0.037079,-0.20752 0.074157,-0.41504 0.11124,-0.62256 0.041217,-0.021125 0.065659,-0.065363 0.11102,-0.080349 z"
         style="fill:url(#radialGradient8198)"
         id="path8125" />
    </g>
    <path
       inkscape:connector-curvature="0"
       d="m 12.5,117.5 -4.4403,5 -4.5597,-5 h 2 v -5 h 5 v 5 z"
       style="fill:url(#linearGradient3374);stroke:#699536;stroke-width:0.99829;stroke-linecap:round;stroke-linejoin:round"
       id="path3288" />
  </g>
</svg>
